assets/images/avatar/Avatar 21.svg

<svg fill="none" height="128" viewBox="0 0 128 128" width="128" xmlns="http://www.w3.org/2000/svg" xmlns:xlink="http://www.w3.org/1999/xlink"><mask id="a" height="118" maskUnits="userSpaceOnUse" width="106" x="11" y="5"><path clip-rule="evenodd" d="m58.8245 5.58893c16.8781-1.14964 32.8897 7.41087 43.6855 20.39307 11.062 13.304 15.539 30.5123 12.838 47.5803-2.976 18.7958-10.148 39.3267-27.7584 46.6747-17.0467 7.113-35.3527-3.809-50.8187-13.89-12.5603-8.1875-21.4368-20.4137-24.3252-35.0924-2.77122-14.0834 1.3015-28.0556 9.5902-39.7912 9.0894-12.8693 21.0347-24.80141 36.7886-25.87447z" fill="#eff6f7" fill-rule="evenodd"/></mask><g mask="url(#a)"><path clip-rule="evenodd" d="m58.8245 5.58893c16.8781-1.14964 32.8897 7.41087 43.6855 20.39307 11.062 13.304 15.539 30.5123 12.838 47.5803-2.976 18.7958-10.148 39.3267-27.7584 46.6747-17.0467 7.113-35.3527-3.809-50.8187-13.89-12.5603-8.1875-21.4368-20.4137-24.3252-35.0924-2.77122-14.0834 1.3015-28.0556 9.5902-39.7912 9.0894-12.8693 21.0347-24.80141 36.7886-25.87447z" fill="#eff6f7" fill-rule="evenodd"/><path d="m45.248 32.9325c15.7135-20.7512 42.7215-10.5234 48.5486 1.6122 4.3367 9.0301 2.5295 19.3707 3.52 29.0073 2.8284 27.4987-10.752 32.9143-24.9509 32.8442-14.8968-1.2465-21.8636-4.5532-26.1181-7.0096-8.6887-5.0468-14.4823-9.219-13.5375-19.1725 1.8956-20.0869 8.4541-31.8995 12.5379-37.2816z" fill="#3f3d65"/><path d="m57.6823 65.6701c0 8.4602 2.1729 15.7166-5.3578 22.6743-4.3641 4.032-17.5055 5.3912-23.4026 8.4145-8.0579 4.1291-11.2762 13.5981-12.3886 25.3831h102.0617c-2.347-9.779-3.962-13.796-6.22-18.459-4.901-10.0571-21.2177-8.6613-28.9525-16.3718-3.3097-3.2944-2.3193-11.5962-.8778-24.2103 1.2435-10.9135-24.8624-12.1325-24.8624 2.5692z" fill="#e7baef"/><path d="m118.598 122.146h-102.0677c1.1124-11.789 4.3307-21.258 12.3916-25.3871 3.0293-1.5513 7.9878-2.6637 12.675-3.9284 2.7429 5.0529 30.0496 20.4865 45.946 5.1809 1.9748-1.9169 3.8826-3.9619 5.1809-5.4583 7.6192 2.7429 16.2952 4.2667 19.6362 11.1389 2.285 4.654 3.898 8.665 6.238 18.454z" fill="#f2d6f6"/><path d="m66.8861 122.146h-50.3558c1.1124-11.789 4.3307-21.258 12.3916-25.3871 3.4072-1.7524 9.2556-2.9349 14.4274-4.4282 2.9471-.8381 5.6686-1.7737 7.5856-2.9562 2.7337 7.36 10.63 23.3845 15.9512 32.7715z" fill="#52335e"/><path d="m92.5135 117.824c.6613-.805 1.3501-1.679 1.4446-2.722.1188-1.313-4.3551-7.728-5.2541-8.71 2.9806.259 6.5798.058 7.3143-1.338.4023-.743.3047-1.645.2103-2.483-.3868-3.1683-.9598-6.3108-1.7158-9.4114 7.1492 2.3924 14.7722 4.1783 17.8622 10.5234 2.27 4.663 3.867 8.674 6.223 18.463h-29.635c1.1825-1.445 2.366-2.886 3.5505-4.322z" fill="#52335e"/><path d="m66.8861 122.146h-10.5692c-2.5661-1.93-5.1474-3.847-7.7165-5.791-1.0636-.805-2.237-1.789-2.2949-3.115-.0945-2.282 4.3673-6.342 4.3673-6.342-1.6061.457-4.4709.89-6.1318.829-2.4381-.088-2.4595-2.666-2.4381-3.495.1993-3.991.6062-7.9683 1.219-11.9166 2.9471-.8381 5.6686-1.7737 7.5855-2.9562 2.7612 7.3753 10.6576 23.3998 15.9787 32.7868z" fill="#a9b4c6"/><path d="m96.0183 105.054c-.7345 1.396-4.3337 1.597-7.3143 1.338.9143.982 5.3729 7.397 5.2541 8.71-.0945 1.043-.7833 1.917-1.4446 2.722-1.1825 1.432-2.366 2.873-3.5505 4.322h-10.1912c1.8468-5.221 3.4804-10.512 4.8762-15.872 1.3958-5.361 2.5447-10.7708 3.456-16.226 2.2491 1.2891 4.8061 2.2491 7.4331 3.1116.7561 3.1006 1.329 6.2431 1.7158 9.4114.0823.838.1677 1.74-.2346 2.483z" fill="#a9b4c6"/><path d="m81.5786 83.392c-.768-3.8248-.2468-9.5817.6096-17.0971-7.5216.6278-18.2583 1.8102-24.4267 2.1577.0671 1.6335.1646 3.2152.2042 4.7664v.0671c0 .4693.0183.9356 0 1.3958v.2591c0 .3504 0 .6948-.0274 1.0392 0 .1706-.0183.3383-.0275.5089-.0182.2621-.0366.5242-.0609.7863-.0183.189-.0396.381-.061.5699-.0304.2398-.064.4805-.1006.7223-.0304.192-.0609.3871-.0975.5821-.0457.2469-.1036.4937-.1615.7375-.0427.1798-.0792.3597-.1249.5395-.1067.3931-.2286.7863-.3688 1.1763-.064.186-.1463.3688-.2194.5547-.0732.1859-.1829.4541-.2865.6827-.1037.2285-.1951.3962-.3048.6095s-.2224.4267-.3443.637-.2378.4023-.3627.6095c-.125.2072-.2835.4266-.4328.6369s-.2712.3901-.4206.5852c-.1493.195-.3839.4663-.582.7009-.1463.1676-.2774.3383-.4328.509 5.7356 4.0686 21.8697 4.7543 28.0289-3.7364z" fill="#db9fe6"/><path d="m92.1569 52.4831c-.6522 2.7611 2.1333 5.696-1.3958 14.3939-3.0476 7.5306-8.7619 14.08-11.6663 14.2567-5.6503.3505-18.6636-2.6179-22.6408-14.8388-1.408-4.3276-1.4537-13.9185-1.1702-16.1676.4175-3.2762 1.347-8.3505 2.4137-11.0507 2.5691-6.4975 6.3116-8.8229 8.4632-9.8194 5.9032-2.7429 10.4472-2.7246 17.5695-.3901 6.0465 1.9809 11.4256 10.9409 8.4267 23.616z" fill="#e7baef"/><path d="m64.5119 24.8381c7.3326-2.1943 17.1277-.2834 24.381 5.9276 7.6678 6.5737 7.7014 19.0995 3.8004 22.8816 2.301-11.4286-.7589-16.2317-4.285-17.8957-11.1207 12.4953-23.7409 14.3238-31.9451 15.4636-2.3802.3292-.6522 7.1955-.3353 9.5757.8107 6.0952 4.733 27.7729 20.1448 35.6053-16.4205.6979-30.5341-5.5558-36.0259-12.288-5.2571-6.4427-5.6746-14.979-4.5135-24.6857 2.0968-17.5452 21.8697-31.7166 28.7786-34.5844z" fill="#3f3d65"/><path d="m56.4175 51.6541c-.3322-.96-2.621-5.9551-4.9219-3.8888-1.341 1.2191-.765 4.6019.3779 7.7623 1.0636 2.9318 3.6266 5.5314 4.1904 5.7082.5638.1767.3536-9.5817.3536-9.5817z" fill="#e7baef"/></g></svg>

<svg width="128" height="128" viewBox="0 0 128 128" fill="none" xmlns="http://www.w3.org/2000/svg">
<mask id="mask0_457_1636" style="mask-type:alpha" maskUnits="userSpaceOnUse" x="11" y="5" width="106" height="118">
<path fill-rule="evenodd" clip-rule="evenodd" d="M58.8245 5.58893C75.7026 4.43929 91.7142 12.9998 102.51 25.982C113.572 39.286 118.049 56.4943 115.348 73.5623C112.372 92.3581 105.2 112.889 87.5896 120.237C70.5429 127.35 52.2369 116.428 36.7709 106.347C24.2106 98.1595 15.3341 85.9333 12.4457 71.2546C9.67448 57.1712 13.7472 43.199 22.0359 31.4634C31.1253 18.5941 43.0706 6.66199 58.8245 5.58893Z" fill="#EFF6F7"/>
</mask>
<g mask="url(#mask0_457_1636)">
<path fill-rule="evenodd" clip-rule="evenodd" d="M58.8245 5.58893C75.7026 4.43929 91.7142 12.9998 102.51 25.982C113.572 39.286 118.049 56.4943 115.348 73.5623C112.372 92.3581 105.2 112.889 87.5896 120.237C70.5429 127.35 52.2369 116.428 36.7709 106.347C24.2106 98.1595 15.3341 85.9333 12.4457 71.2546C9.67448 57.1712 13.7472 43.199 22.0359 31.4634C31.1253 18.5941 43.0706 6.66199 58.8245 5.58893Z" fill="#EFF6F7"/>
<path d="M45.248 32.9325C60.9615 12.1813 87.9695 22.4091 93.7966 34.5447C98.1333 43.5748 96.3261 53.9154 97.3166 63.552C100.145 91.0507 86.5646 96.4663 72.3657 96.3962C57.4689 95.1497 50.5021 91.843 46.2476 89.3866C37.5589 84.3398 31.7653 80.1676 32.7101 70.2141C34.6057 50.1272 41.1642 38.3146 45.248 32.9325Z" fill="#3F3D65"/>
<path d="M57.6823 65.6701C57.6823 74.1303 59.8552 81.3867 52.3245 88.3444C47.9604 92.3764 34.819 93.7356 28.9219 96.7589C20.864 100.888 17.6457 110.357 16.5333 122.142H118.595C116.248 112.363 114.633 108.346 112.375 103.683C107.474 93.6259 91.1573 95.0217 83.4225 87.3112C80.1128 84.0168 81.1032 75.715 82.5447 63.1009C83.7882 52.1874 57.6823 50.9684 57.6823 65.6701Z" fill="#E7BAEF"/>
<path d="M118.598 122.146H16.5303C17.6427 110.357 20.861 100.888 28.9219 96.7589C31.9512 95.2076 36.9097 94.0952 41.5969 92.8305C44.3398 97.8834 71.6465 113.317 87.5429 98.0114C89.5177 96.0945 91.4255 94.0495 92.7238 92.5531C100.343 95.296 109.019 96.8198 112.36 103.692C114.645 108.346 116.258 112.357 118.598 122.146Z" fill="#F2D6F6"/>
<path d="M66.8861 122.146H16.5303C17.6427 110.357 20.861 100.888 28.9219 96.7589C32.3291 95.0065 38.1775 93.824 43.3493 92.3307C46.2964 91.4926 49.0179 90.557 50.9349 89.3745C53.6686 96.7345 61.5649 112.759 66.8861 122.146Z" fill="#52335E"/>
<path d="M92.5135 117.824C93.1748 117.019 93.8636 116.145 93.9581 115.102C94.0769 113.789 89.603 107.374 88.704 106.392C91.6846 106.651 95.2838 106.45 96.0183 105.054C96.4206 104.311 96.323 103.409 96.2286 102.571C95.8418 99.4027 95.2688 96.2602 94.5128 93.1596C101.662 95.552 109.285 97.3379 112.375 103.683C114.645 108.346 116.242 112.357 118.598 122.146H88.963C90.1455 120.701 91.329 119.26 92.5135 117.824Z" fill="#52335E"/>
<path d="M66.8861 122.146H56.3169C53.7508 120.216 51.1695 118.299 48.6004 116.355C47.5368 115.55 46.3634 114.566 46.3055 113.24C46.211 110.958 50.6728 106.898 50.6728 106.898C49.0667 107.355 46.2019 107.788 44.541 107.727C42.1029 107.639 42.0815 105.061 42.1029 104.232C42.3022 100.241 42.7091 96.2637 43.3219 92.3154C46.269 91.4773 48.9905 90.5417 50.9074 89.3592C53.6686 96.7345 61.565 112.759 66.8861 122.146Z" fill="#A9B4C6"/>
<path d="M96.0183 105.054C95.2838 106.45 91.6846 106.651 88.704 106.392C89.6183 107.374 94.0769 113.789 93.9581 115.102C93.8636 116.145 93.1748 117.019 92.5135 117.824C91.331 119.256 90.1475 120.697 88.963 122.146H78.7718C80.6186 116.925 82.2522 111.634 83.648 106.274C85.0438 100.913 86.1927 95.5032 87.104 90.048C89.3531 91.3371 91.9101 92.2971 94.5371 93.1596C95.2932 96.2602 95.8661 99.4027 96.2529 102.571C96.3352 103.409 96.4206 104.311 96.0183 105.054Z" fill="#A9B4C6"/>
<path d="M81.5786 83.392C80.8106 79.5672 81.3318 73.8103 82.1882 66.2949C74.6666 66.9227 63.9299 68.1051 57.7615 68.4526C57.8286 70.0861 57.9261 71.6678 57.9657 73.219C57.9657 73.2404 57.9657 73.2647 57.9657 73.2861C57.9657 73.7554 57.984 74.2217 57.9657 74.6819C57.9657 74.7703 57.9657 74.8556 57.9657 74.941C57.9657 75.2914 57.9657 75.6358 57.9383 75.9802C57.9383 76.1508 57.92 76.3185 57.9108 76.4891C57.8926 76.7512 57.8742 77.0133 57.8499 77.2754C57.8316 77.4644 57.8103 77.6564 57.7889 77.8453C57.7585 78.0851 57.7249 78.3258 57.6883 78.5676C57.6579 78.7596 57.6274 78.9547 57.5908 79.1497C57.5451 79.3966 57.4872 79.6434 57.4293 79.8872C57.3866 80.067 57.3501 80.2469 57.3044 80.4267C57.1977 80.8198 57.0758 81.213 56.9356 81.603C56.8716 81.789 56.7893 81.9718 56.7162 82.1577C56.643 82.3436 56.5333 82.6118 56.4297 82.8404C56.326 83.0689 56.2346 83.2366 56.1249 83.4499C56.0152 83.6632 55.9025 83.8766 55.7806 84.0869C55.6587 84.2972 55.5428 84.4892 55.4179 84.6964C55.2929 84.9036 55.1344 85.123 54.9851 85.3333C54.8358 85.5436 54.7139 85.7234 54.5645 85.9185C54.4152 86.1135 54.1806 86.3848 53.9825 86.6194C53.8362 86.787 53.7051 86.9577 53.5497 87.1284C59.2853 91.197 75.4194 91.8827 81.5786 83.392Z" fill="#DB9FE6"/>
<path d="M92.1569 52.4831C91.5047 55.2442 94.2902 58.1791 90.7611 66.877C87.7135 74.4076 81.9992 80.957 79.0948 81.1337C73.4445 81.4842 60.4312 78.5158 56.454 66.2949C55.046 61.9673 55.0003 52.3764 55.2838 50.1273C55.7013 46.8511 56.6308 41.7768 57.6975 39.0766C60.2666 32.5791 64.0091 30.2537 66.1607 29.2572C72.0639 26.5143 76.6079 26.5326 83.7302 28.8671C89.7767 30.848 95.1558 39.808 92.1569 52.4831Z" fill="#E7BAEF"/>
<path d="M64.5119 24.8381C71.8445 22.6438 81.6396 24.5547 88.8929 30.7657C96.5607 37.3394 96.5943 49.8652 92.6933 53.6473C94.9943 42.2187 91.9344 37.4156 88.4083 35.7516C77.2876 48.2469 64.6674 50.0754 56.4632 51.2152C54.083 51.5444 55.811 58.4107 56.1279 60.7909C56.9386 66.8861 60.8609 88.5638 76.2727 96.3962C59.8522 97.0941 45.7386 90.8404 40.2468 84.1082C34.9897 77.6655 34.5722 69.1292 35.7333 59.4225C37.8301 41.8773 57.603 27.7059 64.5119 24.8381Z" fill="#3F3D65"/>
<path d="M56.4175 51.6541C56.0853 50.6941 53.7965 45.699 51.4956 47.7653C50.1546 48.9844 50.7306 52.3672 51.8735 55.5276C52.9371 58.4594 55.5001 61.059 56.0639 61.2358C56.6277 61.4125 56.4175 51.6541 56.4175 51.6541Z" fill="#E7BAEF"/>
</g>
</svg>
